X: 10
T: Panu ja ufam, a wy mówicie: miedzy góry
C: Mikołaj Gomółka
%%abc-version 2.0
%%abcx-abcm2ps-target-version 5.9.1 (29 Sep 2008)
%%abc-creator hum2abc beta
%%abcx-conversion-date 2021/10/04 07:59:08
%%abc-edited-by Marta Lawrence
%%abcx-initial-encoding-date 2020-02-03
%%humdrum-veritas 4288531755
%%humdrum-veritas-data 2454037828
%%linebreak <none>
%%barnumbers 0
L: 1/4
M: C|
N: Derived from pl-wn--sd-xvi-qu-273--011_gomolka-mikolaj--panu-ja-ufam-a-wy-mowicie-miedzy-gory.krn
%%staves [1 2 3 4]
V: 1
V: 2
V: 3 clef=alto
V: 4 clef=bass
K: F
[V:1] C4F2G2 [|] 
[V:2] A,4D2E2 [|] 
[V:3] F,4A,2B,2 [|] 
[V:4] F,4D,2G,2 [|] 
[V:1] A2B2c2c2 [|] 
[V:2] F2F2G2A2 [|] 
[V:3] C2D2E2F2 [|] 
[V:4] F,2D,2C,2F,2 [|] 
[V:1] c2B2A2d4 [|] 
[V:2] A2GFE2A4 [|] 
[V:3] F2D2C2F4 [|] 
[V:4] F,2G,2A,2D,4 [|] 
[V:1] c4B2 [|] 
[V:2] G2F2ED [|] 
[V:3] E2D4 [|] 
[V:4] E,2F,2G,2 [|] 
[V:1] c2zGAFGA [|] 
[V:2] E2zEFAGF2 [|] 
[V:3] C2zCCDCC [|] 
[V:4] C,2zC,F,D,E,F, [|] 
[V:1] B2A2z2G2 [|] 
[V:2] EF2z2E2 [|] 
[V:3] B,2C2z2C2 [|] 
[V:4] G,2F,2z2C,2 [|] 
[V:1] G2A2B>AGF [|] 
[V:2] C2C2D2D2 [|] 
[V:3] E2FEDCB,A, [|] 
[V:4] C,2F,,2B,,2B,,2 [|] 
[V:1] EF2EF4 [|] 
[V:2] C2>B,2A,4 [|] 
[V:3] G,F,G,2F,4 [|] 
[V:4] C,4F,,4 [|] 
[V:1] z2F2F2F2 [|] 
[V:2] z2D2C2F4 [|] 
[V:3] z2F,2>G,2A,2 [|] 
[V:4] z2B,,2A,,2F,,2 [|] 
[V:1] G2>A2B4 [|] 
[V:2] E2D3E [|] 
[V:3] G,2G,2G,4 [|] 
[V:4] C,2C,2G,,A,,B,,C, [|] 
[V:1] A4G2G2 [|] 
[V:2] F2F2E2C2 [|] 
[V:3] F,G,A,B,C2E2 [|] 
[V:4] D,E,F,2C,2C2 [|] 
[V:1] B2FGABc4 [|] 
[V:2] D2B,2C2C2 [|] 
[V:3] F2D2F2E2 [|] 
[V:4] B,2B,2A,3G, [|] 
[V:1] B2c2A2 [|] 
[V:2] A2GFE2F2 [|] 
[V:3] D4C2C2 [|] 
[V:4] F,2G,2C,2F,2 [|] 
[V:1] F2F2G2A2 [|] 
[V:2] F2F2DEF4 [|] 
[V:3] C2D2D2C4 [|] 
[V:4] F,2D,2B,2A,2 [|] 
[V:1] B4A2G2 [|] 
[V:2] E2F2E2 [|] 
[V:3] B,2C2C2 [|] 
[V:4] G,4F,2C,2 [|] 
[V:1] F2D2E2E2 [|] 
[V:2] D2D2C2C2 [|] 
[V:3] A,2B,2G,2G,2 [|] 
[V:4] F,2G,2C,2C,2 [|] 
[V:1] F4E4 [|] 
[V:2] D4C4 [|] 
[V:3] B,2>A,2G,4 [|] 
[V:4] B,,4C,4 [|] 
[V:1] C4C2C2 [|] 
[V:2] G,4A,2A,2 [|] 
[V:3] E,4F,2F,2 [|] 
[V:4] C,4F,,2F,,2 [|] 
[V:1] D2>C2B,2B,2 [|] 
[V:2] B,4B,2A,G, [|] 
[V:3] F,2F,4E,2 [|] 
[V:4] B,,2>A,,2G,,2G,,2 [|] 
[V:1] C2E2F2A2 [|] 
[V:2] A,2C2A,2E2 [|] 
[V:3] F,2G,2F,2C2 [|] 
[V:4] F,,2C,2D,2A,,2 [|] 
[V:1] GFF4E2 [|] 
[V:2] D2D2C3B, [|] 
[V:3] B,2>A,2G,F,G,2 [|] 
[V:4] B,,2B,,2C,4 [|] 
[V:1] F8 :|]  
[V:2] A,8 :|]  
[V:3] F,8 :|]  
[V:4] F,,8 :|]  


